icons/repo-24.svg

<svg width="24" height="24" viewBox="0 0 24 24" xmlns="http://www.w3.org/2000/svg">
  <path fill-rule="evenodd" clip-rule="evenodd" d="M3 2.75C3 1.23122 4.23122 0 5.75 0H20.25C20.6642 0 21 0.335786 21 0.75V21.25C21 21.6642 20.6642 22 20.25 22H14.25C13.8358 22 13.5 21.6642 13.5 21.25C13.5 20.8358 13.8358 20.5 14.25 20.5H19.5V16.5H6C5.17157 16.5 4.5 17.1716 4.5 18V18.75C4.5 19.4664 4.93064 20.084 5.55028 20.3547C5.92984 20.5206 6.1031 20.9627 5.93726 21.3423C5.77143 21.7218 5.32929 21.8951 4.94972 21.7292C3.80345 21.2284 3 20.0839 3 18.75V2.75ZM19.5 1.5V15H6C5.45357 15 4.94126 15.1461 4.5 15.4013V2.75C4.5 2.05964 5.05964 1.5 5.75 1.5H19.5Z"/>
  <path d="M7 18.25C7 18.1119 7.11193 18 7.25 18H12.25C12.3881 18 12.5 18.1119 12.5 18.25V23.2591C12.5 23.4634 12.2682 23.5814 12.103 23.4612L9.89704 21.8569C9.80938 21.7932 9.69062 21.7932 9.60296 21.8569L7.39704 23.4612C7.2318 23.5814 7 23.4634 7 23.2591V18.25Z"/>
</svg>

<svg xmlns="http://www.w3.org/2000/svg" width="24" height="24" viewBox="0 0 24 24"><path fill-rule="evenodd" d="M3 2.75A2.75 2.75 0 015.75 0h14.5a.75.75 0 01.75.75v20.5a.75.75 0 01-.75.75h-6a.75.75 0 010-1.5h5.25v-4H6A1.5 1.5 0 004.5 18v.75c0 .716.43 1.334 1.05 1.605a.75.75 0 01-.6 1.374A3.25 3.25 0 013 18.75v-16zM19.5 1.5V15H6c-.546 0-1.059.146-1.5.401V2.75c0-.69.56-1.25 1.25-1.25H19.5z"/><path d="M7 18.25a.25.25 0 01.25-.25h5a.25.25 0 01.25.25v5.01a.25.25 0 01-.397.201l-2.206-1.604a.25.25 0 00-.294 0L7.397 23.46a.25.25 0 01-.397-.2v-5.01z"/></svg>
